X:418
T: Gegret seist du Maria (5-13), S. 29
N: P0688
O: Lothringen
S: MERKELBACH-PINCK, Angelika: Verklingende Weisen, Bd 5, Kassel 1962]
R: geistliches, religises Lied]
M: 3/4
L: 1/8
K: A
A2 | A3BAA | A3GA2 | B3=cB2 | E4
E2 | =c2c2d2 | e3d=c2 | d2=c2B2 | A4
AA | A3ABB | A2GGAA | B3=cB2 | E4
E2 | =c2c2d2 | e3d=c2 | dd=c2B2 | A4

@@@ Tune index: 7968
